src/resources/mandatory/M030.svg

<svg height="264.567" width="264.568" xmlns="http://www.w3.org/2000/svg" xmlns:xlink="http://www.w3.org/1999/xlink"><clipPath id="a"><path d="m78.886 479.36h228.24v228.24h-228.24z"/></clipPath><g clip-path="url(#a)" fill-rule="evenodd" transform="matrix(1.33333 0 0 -1.33333 -125.057 923.589)"><path d="m0 0c54.79 0 99.213 44.438 99.213 99.177 0 54.81-44.423 99.248-99.213 99.248s-99.213-44.438-99.213-99.248c0-54.739 44.423-99.177 99.213-99.177" fill="#005387" transform="translate(193.006 494.266)"/><g fill="#ecece7"><path d="m0 0-7.535 4.811-7.52-4.811 7.52-4.826zm-2.93-7.053-7.52-4.811 7.52-4.826 7.52 4.826zm-4.605-23.234-7.52-4.826 7.52-4.812 7.535 4.812zm7.535-22.487-7.535-4.826-7.52 4.826 7.52 4.811zm18.853 48.187-5.292-61.216h-38.977l-5.292 61.216 6.413.553 4.785-55.329h27.166l4.783 55.329z" transform="translate(229.666 598.798)"/><path d="m0 0-14.666-20.918-8.417 5.902 14.666 20.903z" transform="translate(147.677 622.824)"/><path d="m0 0 16.745 19.275-7.759 6.738-16.745-19.289z" transform="translate(147.348 622.406)"/><path d="m0 0 2.437 32.214-11.706.881-2.452-32.198z" transform="translate(158.471 570.47)"/><path d="m0 0-12.154-45.377-22.695 6.081 12.154 45.378z" transform="translate(184.23 643.937)"/><path d="m0 0-19.271 16.749-6.743-7.754 19.271-16.75z" transform="translate(205.55 626.097)"/><path d="m0 0-24.415 7.5-3.02-9.831 24.414-7.501z" transform="translate(228.097 619.627)"/><path d="m0 0-11.662 1.42 3.917 32.064 11.662-1.42z" transform="translate(154.524 538.15)"/><path d="m186.638 571.156h-11.751v-32.289h11.751z"/><path d="m0 0-10.525-5.23-14.352 28.927 10.51 5.23z" transform="translate(186.025 573.771)"/><path d="m0 0-.029.583-.09.568-.135.552-.194.553-.239.508-.299.508-.344.448-.389.434-.433.388-.464.344-.493.298-.509.239-.552.195-.554.149-.568.075-.583.03-.568-.03-.568-.075-.569-.149-.538-.195-.523-.239-.493-.298-.464-.344-.433-.388-.374-.434-.344-.448-.299-.508-.254-.508-.195-.553-.134-.552-.09-.568-.03-.583.03-.568.09-.568.134-.567.195-.539.254-.522.299-.493.344-.463.374-.434.433-.388.464-.344.493-.284.523-.254.538-.195.569-.133.568-.09.568-.03.583.03.568.09.554.133.552.195.509.254.493.284.464.344.433.388.389.434.344.463.299.493.239.522.194.539.135.567.09.568z" transform="translate(186.638 571.156)"/><path d="m0 0-.029.538-.075.523-.15.523-.194.508-.239.478-.285.448-.343.419-.389.373-.403.343-.464.3-.478.238-.494.195-.523.134-.538.09-.523.03-.539-.03-.538-.09-.523-.134-.494-.195-.478-.238-.449-.3-.418-.343-.389-.373-.329-.419-.299-.448-.239-.478-.195-.508-.15-.523-.074-.523-.03-.538.03-.538.074-.538.15-.523.195-.493.239-.478.299-.449.329-.418.389-.388.418-.329.449-.299.478-.239.494-.194.523-.15.538-.074.539-.03.523.03.538.074.523.15.494.194.478.239.464.299.403.329.389.388.343.418.285.449.239.478.194.493.15.523.075.538z" transform="translate(165.348 645.058)"/><path d="m0 0-.03.538-.09.538-.134.507-.195.508-.239.478-.299.449-.329.418-.389.389-.418.329-.449.298-.478.239-.494.194-.523.135-.538.09-.539.03-.537-.03-.524-.09-.523-.135-.493-.194-.479-.239-.464-.298-.418-.329-.374-.389-.343-.418-.285-.449-.254-.478-.194-.508-.135-.507-.075-.538-.03-.538.03-.538.075-.523.135-.523.194-.508.254-.478.285-.449.343-.418.374-.388.418-.329.464-.299.479-.239.493-.194.523-.135.524-.089.537-.03.539.03.538.089.523.135.494.194.478.239.449.299.418.329.389.388.329.418.299.449.239.478.195.508.134.523.09.523z" transform="translate(148.604 625.768)"/><path d="m0 0-.03.539-.075.537-.134.508-.194.508-.254.478-.285.449-.343.418-.374.389-.419.328-.448.299-.494.239-.493.194-.523.15-.523.074-.539.031-.538-.031-.539-.074-.508-.15-.508-.194-.478-.239-.449-.299-.418-.328-.389-.389-.329-.418-.299-.449-.239-.478-.195-.508-.134-.508-.09-.537-.03-.539.03-.538.09-.523.134-.522.195-.508.239-.478.299-.449.329-.418.389-.374.418-.343.449-.299.478-.239.508-.195.508-.134.539-.09.538-.03.539.03.523.09.523.134.493.195.494.239.448.299.419.343.374.374.343.418.285.449.254.478.194.508.134.522.075.523z" transform="translate(133.937 604.85)"/><path d="m0 0-.031.538-.089.523-.135.522-.193.509-.24.478-.3.448-.328.419-.389.373-.418.344-.45.299-.477.238-.509.195-.508.135-.539.089-.537.03-.539-.03-.523-.089-.523-.135-.509-.195-.478-.238-.448-.299-.419-.344-.374-.373-.344-.419-.284-.448-.254-.478-.194-.509-.135-.522-.089-.523-.016-.538.016-.538.089-.538.135-.507.194-.509.254-.478.284-.448.344-.419.374-.388.419-.329.448-.299.478-.238.509-.195.523-.149.523-.075.539-.03.537.03.539.075.508.149.509.195.477.238.45.299.418.329.389.388.328.419.3.448.24.478.193.509.135.507.089.538z" transform="translate(231.73 614.711)"/><path d="m0 0-.031.538-.089.538-.135.507-.195.509-.239.478-.299.448-.329.418-.388.389-.418.328-.45.3-.478.238-.508.195-.509.134-.538.09-.538.03-.538-.03-.523-.09-.524-.134-.508-.195-.478-.238-.449-.3-.418-.328-.374-.389-.344-.418-.284-.448-.254-.478-.195-.509-.134-.507-.09-.538-.015-.538.015-.538.09-.523.134-.523.195-.508.254-.478.284-.449.344-.418.374-.373.418-.344.449-.299.478-.239.508-.194.524-.134.523-.09.538-.03.538.03.538.09.509.134.508.194.478.239.45.299.418.344.388.373.329.418.299.449.239.478.195.508.135.523.089.523z" transform="translate(207.316 622.212)"/><path d="m0 0-.03.538-.09.523-.134.523-.195.508-.239.478-.299.448-.344.419-.373.373-.419.344-.449.299-.478.238-.508.195-.524.135-.523.089-.538.03-.538-.03-.524-.089-.523-.135-.508-.195-.479-.238-.448-.299-.419-.344-.374-.373-.344-.419-.298-.448-.24-.478-.194-.508-.135-.523-.09-.523-.029-.538.029-.538.09-.538.135-.507.194-.509.24-.478.298-.448.344-.419.374-.388.419-.329.448-.299.479-.238.508-.195.523-.135.524-.089.538-.03.538.03.523.089.524.135.508.195.478.238.449.299.419.329.373.388.344.419.299.448.239.478.195.509.134.507.09.538z" transform="translate(188.044 638.976)"/><path d="m0 0-.03.762-.075.762-.15.762-.194.732-.254.733-.314.702-.359.672-.403.657-.464.613-.493.583-.554.552-.583.493-.612.464-.644.403-.687.359-.703.314-.717.253-.748.195-.763.149-.762.075-.762.03-.763-.03-.777-.075-.748-.149-.747-.195-.718-.253-.703-.314-.688-.359-.642-.403-.628-.464-.583-.493-.539-.552-.493-.583-.463-.613-.404-.657-.359-.672-.314-.702-.254-.733-.194-.732-.15-.762-.075-.762-.03-.762.03-.777.075-.762.15-.747.194-.747.254-.732.314-.703.359-.672.404-.657.463-.613.493-.583.539-.553.583-.493.628-.463.642-.403.688-.359.703-.314.718-.253.747-.195.748-.134.777-.09.763-.03.762.03.762.09.763.134.748.195.717.253.703.314.687.359.644.403.612.463.583.493.554.553.493.583.464.613.403.657.359.672.314.703.254.732.194.747.15.747.075.762z" transform="translate(186.579 659.745)"/><path d="m0 0-.029.568-.091.567-.134.569-.194.538-.255.522-.283.493-.344.463-.389.434-.434.389-.463.343-.493.283-.524.255-.538.195-.553.134-.568.089-.583.031-.568-.031-.584-.089-.553-.134-.538-.195-.523-.255-.493-.283-.464-.343-.434-.389-.374-.434-.343-.463-.299-.493-.254-.522-.195-.538-.134-.569-.09-.567-.03-.568.03-.582.09-.568.134-.554.195-.552.254-.508.299-.508.343-.463.374-.419.434-.388.464-.344.493-.299.523-.239.538-.194.553-.149.584-.075.568-.03.583.03.568.075.553.149.538.194.524.239.493.299.463.344.434.388.389.419.344.463.283.508.255.508.194.552.134.554.091.568z" transform="translate(154.569 538.867)"/><path d="m0 0-.029.568-.09.567-.135.569-.194.538-.239.522-.299.493-.344.463-.389.434-.433.389-.464.343-.493.283-.509.255-.552.195-.554.134-.568.089-.583.031-.568-.031-.568-.089-.569-.134-.538-.195-.523-.255-.493-.283-.464-.343-.433-.389-.374-.434-.344-.463-.299-.493-.254-.522-.195-.538-.134-.569-.09-.567-.03-.568.03-.582.09-.568.134-.554.195-.552.254-.508.299-.508.344-.463.374-.419.433-.388.464-.344.493-.299.523-.239.538-.194.569-.149.568-.075.568-.03.583.03.568.075.554.149.552.194.509.239.493.299.464.344.433.388.389.419.344.463.299.508.239.508.194.552.135.554.09.568z" transform="translate(186.638 538.867)"/><path d="m0 0-.03.583-.075.568-.149.552-.194.538-.239.524-.3.492-.344.464-.388.433-.419.388-.463.344-.493.299-.524.239-.553.194-.553.135-.568.089-.584.03-.568-.03-.568-.089-.568-.135-.538-.194-.524-.239-.493-.299-.463-.344-.419-.388-.389-.433-.343-.464-.299-.492-.24-.524-.194-.538-.149-.552-.075-.568-.03-.583.03-.583.075-.568.149-.552.194-.538.24-.523.299-.493.343-.463.389-.434.419-.388.463-.344.493-.299.524-.239.538-.194.568-.135.568-.089.568-.03.584.03.568.089.553.135.553.194.524.239.493.299.463.344.419.388.388.434.344.463.3.493.239.523.194.538.149.552.075.568z" transform="translate(172.27 600.083)"/><path d="m0 0-.015.583-.09.567-.149.568-.18.538-.254.523-.299.493-.344.463-.389.419-.418.389-.464.343-.493.299-.523.239-.539.194-.568.15-.567.089-.569.015-.583-.015-.568-.089-.553-.15-.553-.194-.509-.239-.508-.299-.464-.343-.418-.389-.389-.419-.343-.463-.3-.493-.239-.523-.194-.538-.15-.568-.074-.567-.03-.583.03-.567.074-.569.15-.567.194-.538.239-.523.3-.493.343-.464.389-.418.418-.388.464-.344.508-.298.509-.255.553-.194.553-.134.568-.09.583-.03.569.03.567.09.568.134.539.194.523.255.493.298.464.344.418.388.389.418.344.464.299.493.254.523.18.538.149.567.09.569z" transform="translate(160.923 603.116)"/><path d="m0 0-.03.582-.089.569-.135.552-.194.553-.254.508-.284.508-.344.464-.389.418-.433.388-.464.344-.493.299-.524.238-.538.195-.553.149-.568.075-.583.029-.568-.029-.583-.075-.554-.149-.538-.195-.523-.238-.493-.299-.464-.344-.434-.388-.388-.418-.329-.464-.299-.508-.254-.508-.195-.553-.134-.552-.09-.569-.03-.582.03-.568.09-.567.134-.569.195-.538.254-.522.299-.493.329-.463.388-.434.434-.389.464-.343.493-.284.523-.253.538-.195.554-.135.583-.089.568-.03.583.03.568.089.553.135.538.195.524.253.493.284.464.343.433.389.389.434.344.463.284.493.254.522.194.538.135.569.089.567z" transform="translate(158.486 570.917)"/></g></g></svg>

<?xml version="1.0" encoding="UTF-8" standalone="no"?>
<svg
   height="264.56601"
   width="264.56735"
   version="1.1"
   id="svg26"
   xmlns="http://www.w3.org/2000/svg"
   xmlns:svg="http://www.w3.org/2000/svg">
  <defs
     id="defs26" />
  <clipPath
     id="a">
    <path
       d="m 78.886,479.36 h 228.24 V 707.6 H 78.886 Z"
       id="path1" />
  </clipPath>
  <g
     clip-path="url(#a)"
     fill-rule="evenodd"
     transform="matrix(1.33333,0,0,-1.33333,-125.05702,923.58569)"
     id="g26">
    <path
       d="m 0,0 c 54.79,0 99.213,44.438 99.213,99.177 0,54.81 -44.423,99.248 -99.213,99.248 -54.79,0 -99.213,-44.438 -99.213,-99.248 C -99.213,44.438 -54.79,0 0,0"
       fill="#005387"
       transform="translate(193.006,494.266)"
       id="path2" />
    <g
       fill="#ecece7"
       id="g25">
      <path
         d="M 0,0 -7.535,4.811 -15.055,0 l 7.52,-4.826 z m -2.93,-7.053 -7.52,-4.811 7.52,-4.826 7.52,4.826 z m -4.605,-23.234 -7.52,-4.826 7.52,-4.812 L 0,-35.113 Z M 0,-52.774 -7.535,-57.6 l -7.52,4.826 7.52,4.811 z m 18.853,48.187 -5.292,-61.216 h -38.977 l -5.292,61.216 6.413,0.553 4.785,-55.329 H 7.656 l 4.783,55.329 z"
         transform="translate(229.666,598.798)"
         id="path3" />
      <path
         d="m 0,0 -14.666,-20.918 -8.417,5.902 14.666,20.903 z"
         transform="translate(147.677,622.824)"
         id="path4" />
      <path
         d="M 0,0 16.745,19.275 8.986,26.013 -7.759,6.724 Z"
         transform="translate(147.348,622.406)"
         id="path5" />
      <path
         d="M 0,0 2.437,32.214 -9.269,33.095 -11.721,0.897 Z"
         transform="translate(158.471,570.47)"
         id="path6" />
      <path
         d="m 0,0 -12.154,-45.377 -22.695,6.081 12.154,45.378 z"
         transform="translate(184.23,643.937)"
         id="path7" />
      <path
         d="M 0,0 -19.271,16.749 -26.014,8.995 -6.743,-7.755 Z"
         transform="translate(205.55,626.097)"
         id="path8" />
      <path
         d="m 0,0 -24.415,7.5 -3.02,-9.831 24.414,-7.501 z"
         transform="translate(228.097,619.627)"
         id="path9" />
      <path
         d="m 0,0 -11.662,1.42 3.917,32.064 11.662,-1.42 z"
         transform="translate(154.524,538.15)"
         id="path10" />
      <path
         d="m 186.638,571.156 h -11.751 v -32.289 h 11.751 z"
         id="path11" />
      <path
         d="m 0,0 -10.525,-5.23 -14.352,28.927 10.51,5.23 z"
         transform="translate(186.025,573.771)"
         id="path12" />
      <path
         d="M 0,0 -0.029,0.583 -0.119,1.151 -0.254,1.703 -0.448,2.256 -0.687,2.764 -0.986,3.272 -1.33,3.72 -1.719,4.154 -2.152,4.542 -2.616,4.886 -3.109,5.184 -3.618,5.423 -4.17,5.618 -4.724,5.767 -5.292,5.842 -5.875,5.872 -6.443,5.842 -7.011,5.767 -7.58,5.618 -8.118,5.423 -8.641,5.184 -9.134,4.886 -9.598,4.542 -10.031,4.154 -10.405,3.72 -10.749,3.272 -11.048,2.764 -11.302,2.256 -11.497,1.703 -11.631,1.151 -11.721,0.583 -11.751,0 l 0.03,-0.568 0.09,-0.568 0.134,-0.567 0.195,-0.539 0.254,-0.522 0.299,-0.493 0.344,-0.463 0.374,-0.434 0.433,-0.388 0.464,-0.344 0.493,-0.284 0.523,-0.254 0.538,-0.195 0.569,-0.133 0.568,-0.09 0.568,-0.03 0.583,0.03 0.568,0.09 0.554,0.133 0.552,0.195 0.509,0.254 0.493,0.284 0.464,0.344 0.433,0.388 0.389,0.434 0.344,0.463 0.299,0.493 0.239,0.522 0.194,0.539 0.135,0.567 0.09,0.568 z"
         transform="translate(186.638,571.156)"
         id="path13" />
      <path
         d="M 0,0 -0.029,0.538 -0.104,1.061 -0.254,1.584 -0.448,2.092 -0.687,2.57 -0.972,3.018 -1.315,3.437 -1.704,3.81 -2.107,4.153 -2.571,4.453 -3.049,4.691 -3.543,4.886 -4.066,5.02 -4.604,5.11 -5.127,5.14 -5.666,5.11 -6.204,5.02 -6.727,4.886 -7.221,4.691 -7.699,4.453 -8.148,4.153 -8.566,3.81 -8.955,3.437 -9.284,3.018 -9.583,2.57 -9.822,2.092 -10.017,1.584 -10.167,1.061 -10.241,0.538 -10.271,0 l 0.03,-0.538 0.074,-0.538 0.15,-0.523 0.195,-0.493 0.239,-0.478 0.299,-0.449 0.329,-0.418 0.389,-0.388 0.418,-0.329 0.449,-0.299 0.478,-0.239 0.494,-0.194 0.523,-0.15 0.538,-0.074 0.539,-0.03 0.523,0.03 0.538,0.074 0.523,0.15 0.494,0.194 0.478,0.239 0.464,0.299 0.403,0.329 0.389,0.388 0.343,0.418 0.285,0.449 0.239,0.478 0.194,0.493 0.15,0.523 0.075,0.538 z"
         transform="translate(165.348,645.058)"
         id="path14" />
      <path
         d="M 0,0 -0.03,0.538 -0.12,1.076 -0.254,1.583 -0.449,2.091 -0.688,2.569 -0.987,3.018 -1.316,3.436 -1.705,3.825 -2.123,4.154 -2.572,4.452 -3.05,4.691 -3.544,4.885 -4.067,5.02 -4.605,5.11 -5.144,5.14 -5.681,5.11 -6.205,5.02 -6.728,4.885 -7.221,4.691 -7.7,4.452 -8.164,4.154 -8.582,3.825 -8.956,3.436 -9.299,3.018 -9.584,2.569 -9.838,2.091 -10.032,1.583 -10.167,1.076 -10.242,0.538 -10.272,0 l 0.03,-0.538 0.075,-0.523 0.135,-0.523 0.194,-0.508 0.254,-0.478 0.285,-0.449 0.343,-0.418 0.374,-0.388 0.418,-0.329 0.464,-0.299 0.479,-0.239 0.493,-0.194 0.523,-0.135 0.524,-0.089 0.537,-0.03 0.539,0.03 0.538,0.089 0.523,0.135 0.494,0.194 0.478,0.239 0.449,0.299 0.418,0.329 0.389,0.388 0.329,0.418 0.299,0.449 0.239,0.478 0.195,0.508 0.134,0.523 0.09,0.523 z"
         transform="translate(148.604,625.768)"
         id="path15" />
      <path
         d="M 0,0 -0.03,0.539 -0.105,1.076 -0.239,1.584 -0.433,2.092 -0.687,2.57 -0.972,3.019 -1.315,3.437 -1.689,3.826 -2.108,4.154 -2.556,4.453 -3.05,4.692 -3.543,4.886 -4.066,5.036 -4.589,5.11 -5.128,5.141 -5.666,5.11 -6.205,5.036 -6.713,4.886 -7.221,4.692 -7.699,4.453 -8.148,4.154 -8.566,3.826 -8.955,3.437 -9.284,3.019 -9.583,2.57 -9.822,2.092 -10.017,1.584 -10.151,1.076 -10.241,0.539 -10.271,0 l 0.03,-0.538 0.09,-0.523 0.134,-0.522 0.195,-0.508 0.239,-0.478 0.299,-0.449 0.329,-0.418 0.389,-0.374 0.418,-0.343 0.449,-0.299 0.478,-0.239 0.508,-0.195 0.508,-0.134 0.539,-0.09 0.538,-0.03 0.539,0.03 0.523,0.09 0.523,0.134 0.493,0.195 0.494,0.239 0.448,0.299 0.419,0.343 0.374,0.374 0.343,0.418 0.285,0.449 0.254,0.478 0.194,0.508 0.134,0.522 0.075,0.523 z"
         transform="translate(133.937,604.85)"
         id="path16" />
      <path
         d="M 0,0 -0.031,0.538 -0.12,1.061 -0.255,1.583 -0.448,2.092 -0.688,2.57 -0.988,3.018 -1.316,3.437 -1.705,3.81 -2.123,4.154 -2.573,4.453 -3.05,4.691 -3.559,4.886 -4.067,5.021 -4.606,5.11 -5.143,5.14 -5.682,5.11 -6.205,5.021 -6.728,4.886 -7.237,4.691 -7.715,4.453 -8.163,4.154 -8.582,3.81 -8.956,3.437 -9.3,3.018 -9.584,2.57 -9.838,2.092 -10.032,1.583 -10.167,1.061 -10.256,0.538 -10.272,0 l 0.016,-0.538 0.089,-0.538 0.135,-0.507 0.194,-0.509 0.254,-0.478 0.284,-0.448 0.344,-0.419 0.374,-0.388 0.419,-0.329 0.448,-0.299 0.478,-0.238 0.509,-0.195 0.523,-0.149 0.523,-0.075 0.539,-0.03 0.537,0.03 0.539,0.075 0.508,0.149 0.509,0.195 0.477,0.238 0.45,0.299 0.418,0.329 0.389,0.388 0.328,0.419 0.3,0.448 0.24,0.478 0.193,0.509 0.135,0.507 0.089,0.538 z"
         transform="translate(231.73,614.711)"
         id="path17" />
      <path
         d="M 0,0 -0.031,0.538 -0.12,1.076 -0.255,1.583 -0.45,2.092 -0.689,2.57 -0.988,3.018 -1.317,3.436 -1.705,3.825 -2.123,4.153 -2.573,4.453 -3.051,4.691 -3.559,4.886 -4.068,5.02 -4.606,5.11 -5.144,5.14 -5.682,5.11 -6.205,5.02 -6.729,4.886 -7.237,4.691 -7.715,4.453 -8.164,4.153 -8.582,3.825 -8.956,3.436 -9.3,3.018 -9.584,2.57 -9.838,2.092 -10.033,1.583 -10.167,1.076 -10.257,0.538 -10.272,0 l 0.015,-0.538 0.09,-0.523 0.134,-0.523 0.195,-0.508 0.254,-0.478 0.284,-0.449 0.344,-0.418 0.374,-0.373 0.418,-0.344 0.449,-0.299 0.478,-0.239 0.508,-0.194 0.524,-0.134 0.523,-0.09 0.538,-0.03 0.538,0.03 0.538,0.09 0.509,0.134 0.508,0.194 0.478,0.239 0.45,0.299 0.418,0.344 0.388,0.373 0.329,0.418 0.299,0.449 0.239,0.478 0.195,0.508 0.135,0.523 0.089,0.523 z"
         transform="translate(207.316,622.212)"
         id="path18" />
      <path
         d="M 0,0 -0.03,0.538 -0.12,1.061 -0.254,1.584 -0.449,2.092 -0.688,2.57 -0.987,3.018 -1.331,3.437 -1.704,3.81 -2.123,4.154 -2.572,4.453 -3.05,4.691 -3.558,4.886 -4.082,5.021 -4.605,5.11 -5.143,5.14 -5.681,5.11 -6.205,5.021 -6.728,4.886 -7.236,4.691 -7.715,4.453 -8.163,4.154 -8.582,3.81 -8.956,3.437 -9.3,3.018 -9.598,2.57 -9.838,2.092 -10.032,1.584 -10.167,1.061 -10.257,0.538 -10.286,0 l 0.029,-0.538 0.09,-0.538 0.135,-0.507 0.194,-0.509 0.24,-0.478 0.298,-0.448 0.344,-0.419 0.374,-0.388 0.419,-0.329 0.448,-0.299 0.479,-0.238 0.508,-0.195 0.523,-0.135 0.524,-0.089 0.538,-0.03 0.538,0.03 0.523,0.089 0.524,0.135 0.508,0.195 0.478,0.238 0.449,0.299 0.419,0.329 0.373,0.388 0.344,0.419 0.299,0.448 0.239,0.478 0.195,0.509 0.134,0.507 0.09,0.538 z"
         transform="translate(188.044,638.976)"
         id="path19" />
      <path
         d="m 0,0 -0.03,0.762 -0.075,0.762 -0.15,0.762 -0.194,0.732 -0.254,0.733 -0.314,0.702 -0.359,0.672 -0.403,0.657 -0.464,0.613 -0.493,0.583 -0.554,0.552 -0.583,0.493 -0.612,0.464 -0.644,0.403 -0.687,0.359 -0.703,0.314 -0.717,0.253 -0.748,0.195 -0.763,0.149 -0.762,0.075 -0.762,0.03 -0.763,-0.03 -0.777,-0.075 -0.748,-0.149 L -13.306,9.816 -14.024,9.563 -14.727,9.249 -15.415,8.89 -16.057,8.487 -16.685,8.023 -17.268,7.53 -17.807,6.978 -18.3,6.395 -18.763,5.782 -19.167,5.125 -19.526,4.453 -19.84,3.751 -20.094,3.018 -20.288,2.286 -20.438,1.524 -20.513,0.762 -20.543,0 l 0.03,-0.777 0.075,-0.762 0.15,-0.747 0.194,-0.747 0.254,-0.732 0.314,-0.703 0.359,-0.672 0.404,-0.657 0.463,-0.613 0.493,-0.583 0.539,-0.553 0.583,-0.493 0.628,-0.463 0.642,-0.403 0.688,-0.359 0.703,-0.314 0.718,-0.253 0.747,-0.195 0.748,-0.134 0.777,-0.09 0.763,-0.03 0.762,0.03 0.762,0.09 0.763,0.134 0.748,0.195 0.717,0.253 0.703,0.314 0.687,0.359 0.644,0.403 0.612,0.463 0.583,0.493 0.554,0.553 0.493,0.583 0.464,0.613 0.403,0.657 0.359,0.672 0.314,0.703 0.254,0.732 0.194,0.747 0.15,0.747 0.075,0.762 z"
         transform="translate(186.579,659.745)"
         id="path20" />
      <path
         d="M 0,0 -0.029,0.568 -0.12,1.135 -0.254,1.704 -0.448,2.242 -0.703,2.764 -0.986,3.257 -1.33,3.72 -1.719,4.154 -2.153,4.543 -2.616,4.886 -3.109,5.169 -3.633,5.424 -4.171,5.619 -4.724,5.753 -5.292,5.842 -5.875,5.873 -6.443,5.842 -7.027,5.753 -7.58,5.619 -8.118,5.424 -8.641,5.169 -9.134,4.886 -9.598,4.543 -10.032,4.154 -10.406,3.72 -10.749,3.257 -11.048,2.764 -11.302,2.242 -11.497,1.704 -11.631,1.135 -11.721,0.568 -11.751,0 l 0.03,-0.582 0.09,-0.568 0.134,-0.554 0.195,-0.552 0.254,-0.508 0.299,-0.508 0.343,-0.463 0.374,-0.419 0.434,-0.388 0.464,-0.344 0.493,-0.299 0.523,-0.239 0.538,-0.194 0.553,-0.149 0.584,-0.075 0.568,-0.03 0.583,0.03 0.568,0.075 0.553,0.149 0.538,0.194 0.524,0.239 0.493,0.299 0.463,0.344 0.434,0.388 0.389,0.419 0.344,0.463 0.283,0.508 0.255,0.508 0.194,0.552 0.134,0.554 0.091,0.568 z"
         transform="translate(154.569,538.867)"
         id="path21" />
      <path
         d="M 0,0 -0.029,0.568 -0.119,1.135 -0.254,1.704 -0.448,2.242 -0.687,2.764 -0.986,3.257 -1.33,3.72 -1.719,4.154 -2.152,4.543 -2.616,4.886 -3.109,5.169 -3.618,5.424 -4.17,5.619 -4.724,5.753 -5.292,5.842 -5.875,5.873 -6.443,5.842 -7.011,5.753 -7.58,5.619 -8.118,5.424 -8.641,5.169 -9.134,4.886 -9.598,4.543 -10.031,4.154 -10.405,3.72 -10.749,3.257 -11.048,2.764 -11.302,2.242 -11.497,1.704 -11.631,1.135 -11.721,0.568 -11.751,0 l 0.03,-0.582 0.09,-0.568 0.134,-0.554 0.195,-0.552 0.254,-0.508 0.299,-0.508 0.344,-0.463 0.374,-0.419 0.433,-0.388 0.464,-0.344 0.493,-0.299 0.523,-0.239 0.538,-0.194 0.569,-0.149 0.568,-0.075 0.568,-0.03 0.583,0.03 0.568,0.075 0.554,0.149 0.552,0.194 0.509,0.239 0.493,0.299 0.464,0.344 0.433,0.388 0.389,0.419 0.344,0.463 0.299,0.508 0.239,0.508 0.194,0.552 0.135,0.554 0.09,0.568 z"
         transform="translate(186.638,538.867)"
         id="path22" />
      <path
         d="m 0,0 -0.03,0.583 -0.075,0.568 -0.149,0.552 -0.194,0.538 -0.239,0.524 -0.3,0.492 -0.344,0.464 -0.388,0.433 -0.419,0.388 -0.463,0.344 -0.493,0.299 -0.524,0.239 -0.553,0.194 -0.553,0.135 -0.568,0.089 -0.584,0.03 L -6.444,5.842 -7.012,5.753 -7.58,5.618 -8.118,5.424 -8.642,5.185 -9.135,4.886 -9.598,4.542 -10.017,4.154 -10.406,3.721 -10.749,3.257 -11.048,2.765 -11.288,2.241 -11.482,1.703 -11.631,1.151 -11.706,0.583 -11.736,0 l 0.03,-0.583 0.075,-0.568 0.149,-0.552 0.194,-0.538 0.24,-0.523 0.299,-0.493 0.343,-0.463 0.389,-0.434 0.419,-0.388 0.463,-0.344 0.493,-0.299 0.524,-0.239 0.538,-0.194 0.568,-0.135 0.568,-0.089 0.568,-0.03 0.584,0.03 0.568,0.089 0.553,0.135 0.553,0.194 0.524,0.239 0.493,0.299 0.463,0.344 0.419,0.388 0.388,0.434 0.344,0.463 0.3,0.493 0.239,0.523 0.194,0.538 0.149,0.552 0.075,0.568 z"
         transform="translate(172.27,600.083)"
         id="path23" />
      <path
         d="M 0,0 -0.015,0.583 -0.105,1.15 -0.254,1.718 -0.434,2.256 -0.688,2.779 -0.987,3.272 -1.331,3.735 -1.72,4.154 -2.138,4.543 -2.602,4.886 -3.095,5.185 -3.618,5.424 -4.157,5.618 -4.725,5.768 -5.292,5.857 -5.861,5.872 -6.444,5.857 -7.012,5.768 -7.565,5.618 -8.118,5.424 -8.627,5.185 -9.135,4.886 -9.599,4.543 -10.017,4.154 -10.406,3.735 -10.749,3.272 -11.049,2.779 -11.288,2.256 -11.482,1.718 -11.632,1.15 -11.706,0.583 -11.736,0 l 0.03,-0.567 0.074,-0.569 0.15,-0.567 0.194,-0.538 0.239,-0.523 0.3,-0.493 0.343,-0.464 0.389,-0.418 0.418,-0.388 0.464,-0.344 0.508,-0.298 0.509,-0.255 0.553,-0.194 0.553,-0.134 0.568,-0.09 0.583,-0.03 0.569,0.03 0.567,0.09 0.568,0.134 0.539,0.194 0.523,0.255 0.493,0.298 0.464,0.344 0.418,0.388 0.389,0.418 0.344,0.464 0.299,0.493 0.254,0.523 0.18,0.538 0.149,0.567 0.09,0.569 z"
         transform="translate(160.923,603.116)"
         id="path24" />
      <path
         d="M 0,0 -0.03,0.582 -0.119,1.151 -0.254,1.703 -0.448,2.256 -0.702,2.764 -0.986,3.272 -1.33,3.736 -1.719,4.154 -2.152,4.542 -2.616,4.886 -3.109,5.185 -3.633,5.423 -4.171,5.618 -4.724,5.767 -5.292,5.842 -5.875,5.871 -6.443,5.842 -7.026,5.767 -7.58,5.618 -8.118,5.423 -8.641,5.185 -9.134,4.886 -9.598,4.542 -10.032,4.154 -10.42,3.736 -10.749,3.272 -11.048,2.764 -11.302,2.256 -11.497,1.703 -11.631,1.151 -11.721,0.582 -11.751,0 l 0.03,-0.568 0.09,-0.567 0.134,-0.569 0.195,-0.538 0.254,-0.522 0.299,-0.493 0.329,-0.463 0.388,-0.434 0.434,-0.389 0.464,-0.343 0.493,-0.284 0.523,-0.253 0.538,-0.195 0.554,-0.135 0.583,-0.089 0.568,-0.03 0.583,0.03 0.568,0.089 0.553,0.135 0.538,0.195 0.524,0.253 0.493,0.284 0.464,0.343 0.433,0.389 0.389,0.434 0.344,0.463 0.284,0.493 0.254,0.522 0.194,0.538 0.135,0.569 0.089,0.567 z"
         transform="translate(158.486,570.917)"
         id="path25" />
    </g>
  </g>
</svg>
